apps/statesvisited/state-images/KS.svg

<svg height="635" width="1182" xmlns="http://www.w3.org/2000/svg"><path d="m418.57912 256.83992s40.0904.8909 47.8116 1.48483c7.7211.59394 27.9148 2.37573 33.8541 1.48484 5.9393-.8909 23.7573-.29697 23.7573-.29697l4.4545 2.67269s-1.4848 7.12719-.297 8.90899c1.1879 1.7818 7.4242 5.93932 8.0181 8.90898s-.5939 19.59977-.5939 23.16336c0 3.5636 2.0787 21.0846 2.0787 21.0846s-25.2421-.59393-32.6662-.59393c-7.4242 0-35.636-.29697-39.4965-.29697-3.8606 0-32.9633-.8909-36.2299-1.48483s-16.6301-1.18787-16.6301-1.18787 2.0788-26.13302 2.0788-29.99358 3.8605-33.85414 3.8605-33.85414z" fill="#3caea3" fill-rule="evenodd" opacity=".9" stroke="#000"/></svg>

<?xml version="1.0" encoding="UTF-8" standalone="no"?>
<!-- Created with Inkscape (http://www.inkscape.org/) -->
<svg
   xmlns:dc="http://purl.org/dc/elements/1.1/"
   xmlns:cc="http://web.resource.org/cc/"
   xmlns:rdf="http://www.w3.org/1999/02/22-rdf-syntax-ns#"
   xmlns:svg="http://www.w3.org/2000/svg"
   xmlns="http://www.w3.org/2000/svg"
   xmlns:xlink="http://www.w3.org/1999/xlink"
   xmlns:sodipodi="http://sodipodi.sourceforge.net/DTD/sodipodi-0.dtd"
   xmlns:inkscape="http://www.inkscape.org/namespaces/inkscape"
   id="svg1923"
   sodipodi:version="0.32"
   inkscape:version="0.44"
   width="1182"
   height="635"
   version="1.0"
   sodipodi:docbase="/Users/amyshore/Desktop"
   sodipodi:docname="usa.svg">
  <metadata
     id="metadata1928">
    <rdf:RDF>
      <cc:Work
         rdf:about="">
        <dc:format>image/svg+xml</dc:format>
        <dc:type
           rdf:resource="http://purl.org/dc/dcmitype/StillImage" />
      </cc:Work>
    </rdf:RDF>
  </metadata>
  <defs
     id="defs1926" />
  <sodipodi:namedview
     inkscape:window-height="752"
     inkscape:window-width="1280"
     inkscape:pageshadow="2"
     inkscape:pageopacity="0.0"
     guidetolerance="10.0"
     gridtolerance="10.0"
     objecttolerance="10.0"
     borderopacity="1.0"
     bordercolor="#666666"
     pagecolor="#ffffff"
     id="base"
     inkscape:zoom="0.59527559"
     inkscape:cx="775.234"
     inkscape:cy="319.32597"
     inkscape:window-x="0"
     inkscape:window-y="22"
     inkscape:current-layer="layer2" />
  <g
     inkscape:groupmode="layer"
     id="layer1"
     inkscape:label="bg"
     style="opacity:1;display:none"
     sodipodi:insensitive="true">
    <image
       xlink:href="ElectoralCollege1996-Large.png"
       sodipodi:absref="/Users/amyshore/Desktop/ElectoralCollege1996-Large.png"
       width="1182"
       height="635"
       id="image1930"
       x="-1.3571358"
       y="1.6798911" />
  </g>
  <g
     inkscape:groupmode="layer"
     id="layer2"
     inkscape:label="vector"
     style="opacity:0.9;display:inline"> <path style="fill:#3caea3;fill-opacity:1;fill-rule:evenodd;stroke:black;stroke-width:1px;stroke-linecap:butt;stroke-linejoin:miter;stroke-opacity:1" d="M 418.57912,256.83992 C 418.57912,256.83992 458.66952,257.73082 466.39072,258.32475 C 474.11182,258.91869 494.30552,260.70048 500.24482,259.80959 C 506.18412,258.91869 524.00212,259.51262 524.00212,259.51262 L 528.45662,262.18531 C 528.45662,262.18531 526.97182,269.3125 528.15962,271.0943 C 529.34752,272.8761 535.58382,277.03362 536.17772,280.00328 C 536.77162,282.97294 535.58382,299.60305 535.58382,303.16664 C 535.58382,306.73024 537.66252,324.25124 537.66252,324.25124 C 537.66252,324.25124 512.42042,323.65731 504.99632,323.65731 C 497.57212,323.65731 469.36032,323.36034 465.49982,323.36034 C 461.63922,323.36034 432.53652,322.46944 429.26992,321.87551 C 426.00332,321.28158 412.63982,320.68764 412.63982,320.68764 C 412.63982,320.68764 414.71862,294.55462 414.71862,290.69406 C 414.71862,286.8335 418.57912,256.83992 418.57912,256.83992 z " id="path12636" />   </g>
</svg>
